X: 123	% 31
T: Rye Waltz
S: Viola Ruth "Pioneer Western Folk Tunes" 1948 p.12 #3
R: shottish+waltz
Z: 2019 John Chambers <jc:trillian.mit.edu>
M: 4/4
L: 1/8
K: D
V: 1 name="31"
Q: "Moderate (Don't drag)
|:\
A>A A<f e>d e<f | A>AB>A d4 :|[M:3/4] (f/g/) | (a4f2) |\
(d4f2) | (e4d2) | e4(fg) | (a4f2) |
(g4a2) | b6- | b4-Mb2 |\
(a4f2) | (g4e2) | (f4d2) |[M:2/4] e<fz2 ||[M:4/4] A>AB>A d4 :|
